X:139
T:Dunkirke. (p)1657.PLFD1.139
M:C
L:1/8
Q:1/2=80
S:Playford, Dancing Master,Supplement to 3rd Ed.,1657
O:England;London
H:1657.
Z:Chris Partington.
K:G
A>Bc>de2c2|d>cB>AB2E2|A>Bc>de2c2|1dcB>AA4:|2dcB>AA3a|
|:g>fe>de2c2|d>cB>AB2E2|\
A>Bc>de2c2|1(d>c)B>A A<A-Aa:|2(d<c)B>A A<A-A2|]
